Flat-Remix-Light/panel/indicator-keyboard-Ja.svg

<svg xmlns="http://www.w3.org/2000/svg" width="22" height="22" version="1.1">
 <defs>
  <style id="current-color-scheme" type="text/css">
   .ColorScheme-Text { color:#31363b; } .ColorScheme-Highlight { color:#3daee9; }
  </style>
 </defs>
 <rect style="opacity:0" width="22" height="22" x="0" y="0"/>
 <path style="fill:none;stroke:currentColor;stroke-width:1.99999976;stroke-linecap:round;stroke-linejoin:round" class="ColorScheme-Text" d="m 4.9535835,14.00712 0,1.000002 0.9999987,0 C 9.8694148,14.892073 8.9527728,8.1191334 8.9535818,7.0071209"/>
 <path style="fill:none;stroke:currentColor;stroke-width:1.99999976;stroke-linecap:round;stroke-linejoin:bevel" class="ColorScheme-Text" d="m 13,12.004811 4,0 m -3.9999,2.999999 0,-5.9999989 M 17,15.00481 17,9.0048111 m -4.000001,0 -1.5e-5,-0.9995518 c 0,-1 0,-1 2.000016,-1.0004491 1.999984,-4.491e-4 1.999977,4.491e-4 1.999984,1.0004491 C 17,10 17,9.0048111 17,9.0048111"/>
</svg>

<svg xmlns="http://www.w3.org/2000/svg" width="12pt" height="12pt" version="1.1" viewBox="0 0 12 12">
 <g>
  <path style="fill:none;stroke-width:2;stroke-linecap:round;stroke-linejoin:round;stroke:rgb(19.215686%,21.176471%,23.137255%)" d="M 4.953125 14.007812 L 4.953125 15.007812 L 5.953125 15.007812 C 9.867188 14.890625 8.953125 8.117188 8.953125 7.007812" transform="matrix(0.5,0,0,0.5,0.5,0.5)"/>
  <path style="fill:none;stroke-width:2;stroke-linecap:round;stroke-linejoin:bevel;stroke:rgb(19.215686%,21.176471%,23.137255%)" d="M 13 12.007812 L 17 12.007812 M 13 15.007812 L 13 9.007812 M 17 15.007812 L 17 9.007812 M 13 9.007812 L 13 8.007812 C 13 7.007812 13 7.007812 15 7.007812 C 17 7.007812 17 7.007812 17 8.007812 C 17 10 17 9.007812 17 9.007812" transform="matrix(0.5,0,0,0.5,0.5,0.5)"/>
 </g>
</svg>
